assets/main-nav-toggle.svg

<svg width="34" height="22" viewBox="0 0 34 22" fill="none" xmlns="http://www.w3.org/2000/svg">
<path fill-rule="evenodd" clip-rule="evenodd" d="M0.5 1C0.5 0.723858 0.723858 0.5 1 0.5H33C33.2761 0.5 33.5 0.723858 33.5 1C33.5 1.27614 33.2761 1.5 33 1.5H1C0.723858 1.5 0.5 1.27614 0.5 1ZM0.5 11C0.5 10.7239 0.723858 10.5 1 10.5H24C24.2761 10.5 24.5 10.7239 24.5 11C24.5 11.2761 24.2761 11.5 24 11.5H1C0.723858 11.5 0.5 11.2761 0.5 11ZM0.5 21C0.5 20.7239 0.723858 20.5 1 20.5H17C17.2761 20.5 17.5 20.7239 17.5 21C17.5 21.2761 17.2761 21.5 17 21.5H1C0.723858 21.5 0.5 21.2761 0.5 21Z" fill="white"/>
</svg>

<svg width="34" height="22" fill="none" xmlns="http://www.w3.org/2000/svg"><path fill-rule="evenodd" clip-rule="evenodd" d="M.5 1A.5.5 0 011 .5h32a.5.5 0 010 1H1A.5.5 0 01.5 1zm0 10a.5.5 0 01.5-.5h23a.5.5 0 010 1H1a.5.5 0 01-.5-.5zm0 10a.5.5 0 01.5-.5h16a.5.5 0 010 1H1a.5.5 0 01-.5-.5z" fill="#fff"/></svg>
